X:1
T:The Fool's Jig
S:trad arr Pete Stewart
Z:"pls1082001"  tradtunes 2002-5-25
M:4/4
L:1/8
K:G
   GFGEDEDB | AGFED2c2 | BcdBcGFG | AGFEDcBA | GFGEDFGB | AGFED2c2 | BcdBcAGF | G2B2G4 :|
|: BcdBGBdB | cBABc2AB | cBAGFGAB | AGFEDcBA | GFGEDEDB | AGFED2c2 | BcdBEcAF | G2B2G4 :|
